X: 10122
T: Dill Pickles
R: barndance
M: 4/4
K: Gmajor
|:"G"degd egde|"G"gdeg -ge dB|"Em" GABG ABGA|"Em"BGAB -BA G2|"D"DEFD EFDE|
"D"FDEF -FE D2|1 "G" GFGE -EFG^G|"A" A^GAd -"D"d4:|2 "A"AGAd -"D"dB A2|"G?"G8||
|:"D"DAEA =FA^FA|"G" G2 ed -de d2|"D" F2 ed -de d2|"G" G2 ed -de d2|
"D"DAEA =FA^FA|"G" G2 ed -de d2|"A"AB^cA BcBA|"D" d8:|
K:C
"C"cAGc AGEF|"C" GEGA -AG E2|"G(F)" D^CDG -GE D2|"C" C2 [C2E2c2] [C2E2c2] z2|
"C"cAGc AGEF|"C" GEGA -AG E2|"D7" A^GAd -dB A2|"G" G2 [G2B2g2] [G2B2g2] z2||
"C"cAGc AGEF|"C" GEGA -AG E2|"G(F)" D^CDG -GE D2|"C" C2 [C2E2c2] [C2E2c2] z2|
"Am" A2 AB cBcd|"Am"e^dea -ag e2|"D"e^deg -"G"ge =d3|"C"c4 [c4g4]||

